Papirus/32x32/apps/mate-inhibit-applet.svg

<svg xmlns="http://www.w3.org/2000/svg" width="32" height="32" version="1">
 <rect fill="#8e8e8e" width="21" height="16" x="-28" y="-24" rx="1.313" ry="1.333" transform="matrix(0,-1,-1,0,0,0)"/>
 <rect fill="#8e8e8e" width="20" height="26" x="-25" y="-29" rx="1.25" ry="1.3" transform="matrix(0,-1,-1,0,0,0)"/>
 <rect style="opacity:0.5" width="16" height="22" x="-23" y="-27" rx="0" ry="0" transform="matrix(0,-1,-1,0,0,0)"/>
 <path fill="#fff" style="opacity:0.2" d="m4.3008 5c-0.7202 0-1.3008 0.5575-1.3008 1.25v1c0-0.6925 0.5806-1.25 1.3008-1.25h23.398c0.72 0 1.301 0.5575 1.301 1.25v-1c0-0.6925-0.581-1.25-1.301-1.25h-23.398z"/>
 <path opacity=".2" d="m8 26.688v1c0 0.727 0.5953 1.312 1.334 1.312h13.332c0.739 0 1.334-0.585 1.334-1.312v-1c0 0.727-0.595 1.312-1.334 1.312h-13.332c-0.7387 0-1.334-0.585-1.334-1.312z"/>
 <path opacity=".2" d="m3 23.75v1c0 0.692 0.5806 1.25 1.3008 1.25h23.398c0.72 0 1.301-0.558 1.301-1.25v-1c0 0.692-0.581 1.25-1.301 1.25h-23.398c-0.7204 0-1.301-0.558-1.301-1.25z"/>
 <circle fill="#3593cd" fill-rule="evenodd" cx="24" cy="23" r="8"/>
 <path fill="#fff" fill-rule="evenodd" d="m24 19.75c-0.96927 0.0095-1.945 0.2309-2.7893 0.70939-0.33651 0.21919-0.74047 0.50229-1.0449 0.78752-0.479 0.469-0.889 1.016-1.166 1.629 0.75934 1.6751 2.4287 2.9028 4.2651 3.0842 1.2046 0.13636 2.4653-0.07179 3.5242-0.66786 0.3365-0.21919 0.74047-0.50229 1.0449-0.78752 0.479-0.47 0.889-1.017 1.166-1.629-0.759-1.675-2.429-2.903-4.265-3.084-0.244-0.029-0.49-0.042-0.735-0.042zm0 1.2503c1.0044-0.02225 1.8939 0.87633 1.875 1.8754 0.03219 1.1042-1.0681 2.0572-2.1558 1.851-1.0985-0.12898-1.8701-1.3614-1.5088-2.4053 0.231-0.768 0.985-1.33 1.79-1.321zm0 1.2503a0.625 0.62514 0 0 0 -0.625 0.626 0.625 0.62514 0 0 0 0.625 0.625 0.625 0.62514 0 0 0 0.625 -0.625 0.625 0.62514 0 0 0 -0.625 -0.624z"/>
 <path fill-rule="evenodd" opacity=".2" d="m31.979 23.424a8 8 0 0 1 -7.979 7.576 8 8 0 0 1 -7.979 -7.424 8 8 0 0 0 -0.021 0.424 8 8 0 0 0 8 8 8 8 0 0 0 8 -8 8 8 0 0 0 -0.02148 -0.57617z"/>
</svg>

<svg xmlns="http://www.w3.org/2000/svg" width="32" height="32" version="1">
 <rect style="opacity:0.2" width="21" height="16" x="-29" y="-24" rx="1.25" ry="1.25" transform="matrix(0,-1,-1,0,0,0)"/>
 <rect style="fill:#8e8e8e" width="21" height="16" x="-28" y="-24" rx="1.25" ry="1.25" transform="matrix(0,-1,-1,0,0,0)"/>
 <rect style="opacity:0.2" width="20" height="26" x="-26" y="-29" rx="1.25" ry="1.25" transform="matrix(0,-1,-1,0,0,0)"/>
 <rect style="fill:#4f4f4f" width="20" height="26" x="-25" y="-29" rx="1.25" ry="1.25" transform="matrix(0,-1,-1,0,0,0)"/>
 <rect style="opacity:0.4" width="16" height="22" x="-23" y="-27" rx="0" ry="0" transform="matrix(0,-1,-1,0,0,0)"/>
 <path style="opacity:0.1;fill:#ffffff" d="M 4.25,5 C 3.5575,5 3,5.5575 3,6.25 V 7.25 C 3,6.5575 3.5575,6 4.25,6 H 27.75 C 28.442,6 29,6.5575 29,7.25 V 6.25 C 29,5.5575 28.442,5 27.75,5 Z"/>
 <rect style="opacity:0.1;fill:#ffffff" width="22" height="1" x="5" y="23"/>
 <circle style="opacity:0.2" cx="24" cy="24" r="8"/>
 <circle style="fill:#3593cd" cx="24" cy="23" r="8"/>
 <path style="fill:#ffffff" d="M 24,19.75 C 23.031,19.759 22.055,19.981 21.211,20.459 20.874,20.679 20.47,20.962 20.166,21.247 19.687,21.716 19.277,22.263 19,22.876 19.759,24.551 21.428,25.779 23.265,25.96 24.469,26.096 25.73,25.888 26.789,25.292 27.126,25.073 27.53,24.79 27.834,24.505 28.313,24.035 28.723,23.488 29,22.876 28.241,21.201 26.571,19.973 24.735,19.792 24.491,19.763 24.245,19.75 24,19.75 Z M 24,21 C 25.004,20.978 25.894,21.877 25.875,22.876 25.907,23.98 24.807,24.933 23.719,24.727 22.621,24.598 21.849,23.365 22.21,22.321 22.441,21.553 23.195,20.991 24,21 Z M 24,22.251 A 0.625,0.62514 0 0 0 23.375,22.877 0.625,0.62514 0 0 0 24,23.502 0.625,0.62514 0 0 0 24.625,22.877 0.625,0.62514 0 0 0 24,22.253 Z"/>
</svg>
